src/images/single-assets/MTD.svg

<svg width="16" height="16" viewBox="0 0 16 16" fill="none" xmlns="http://www.w3.org/2000/svg">
<path d="M8.00275 15.3258C12.0515 15.3258 15.3336 12.0437 15.3336 7.99494C15.3336 3.94621 12.0515 0.664062 8.00275 0.664062C3.95402 0.664062 0.671875 3.94621 0.671875 7.99494C0.671875 12.0437 3.95402 15.3258 8.00275 15.3258Z" fill="#0D101A"/>
<path d="M8.92628 4.53906H7.0625V7.56943H8.92628V4.53906Z" fill="white"/>
<path d="M11.7153 4.53906H9.85156V10.5929H11.7153V4.53906Z" fill="white"/>
<path d="M11.7226 10.1406H4.28125V12.0044H11.7226V10.1406Z" fill="white"/>
<path d="M6.14503 4.53906H4.28125V7.56943H6.14503V4.53906Z" fill="white"/>
<path d="M11.8379 1.95275C11.8034 1.93204 11.7689 1.91133 11.7344 1.89062V4.54824H14.2746C14.2539 4.51373 14.2332 4.47921 14.2194 4.4447H11.8379V1.95275Z" fill="#9C3F38"/>
<path d="M4.28936 1.88281C4.25484 1.90352 4.22033 1.92423 4.18581 1.94494V4.43689H1.79741C1.7767 4.4714 1.75599 4.50591 1.74219 4.54043H4.28936V1.88281Z" fill="#9C3F38"/>
<path d="M2.08594 12.0156C2.10665 12.0501 2.13426 12.0847 2.15497 12.1192H4.17752V14.0451C4.21203 14.0658 4.24655 14.0865 4.28106 14.1072V12.0156H2.08594Z" fill="#9C3F38"/>
<path d="M11.7178 14.1141C11.7524 14.0934 11.7869 14.0727 11.8214 14.052V12.1192H13.8439C13.8715 12.0847 13.8923 12.0501 13.913 12.0156H11.7109V14.1141H11.7178Z" fill="#9C3F38"/>
<path d="M8.00345 15.5C3.86861 15.5 0.5 12.1314 0.5 7.99655C0.5 3.86171 3.86861 0.5 8.00345 0.5C12.1383 0.5 15.5 3.86171 15.5 7.99655C15.5 12.1314 12.1383 15.5 8.00345 15.5ZM8.00345 0.838242C4.05499 0.838242 0.845145 4.05499 0.845145 7.99655C0.845145 11.9381 4.05499 15.1549 8.00345 15.1549C11.9519 15.1549 15.1549 11.945 15.1549 7.99655C15.1549 4.04809 11.945 0.838242 8.00345 0.838242Z" fill="#FF3F38"/>
</svg>

<svg xmlns="http://www.w3.org/2000/svg" width="16" height="16" fill="none"><path fill="#0D101A" d="M8.003 15.326a7.33 7.33 0 1 0 0-14.662 7.33 7.33 0 0 0 0 14.662"/><path fill="#fff" d="M8.926 4.54H7.062v3.03h1.864zM11.715 4.54H9.852v6.053h1.863z"/><path fill="#fff" d="M11.723 10.14H4.28v1.864h7.442zM6.145 4.54H4.281v3.03h1.864z"/><path fill="#9C3F38" d="m11.838 1.953-.104-.062v2.657h2.54a1 1 0 0 1-.055-.103h-2.381zM4.29 1.883l-.104.062v2.492H1.797a1 1 0 0 0-.055.103H4.29zM2.086 12.016c.02.034.048.069.069.103h2.023v1.926l.103.062v-2.091zM11.718 14.114l.103-.062v-1.933h2.023a1 1 0 0 0 .069-.103h-2.202v2.098z"/><path fill="#FF3F38" d="M8.003 15.5C3.87 15.5.5 12.131.5 7.997S3.869.5 8.003.5A7.503 7.503 0 0 1 15.5 7.997c0 4.134-3.362 7.503-7.497 7.503m0-14.662C4.055.838.845 4.055.845 7.997s3.21 7.158 7.158 7.158 7.152-3.21 7.152-7.158S11.945.838 8.003.838"/></svg>
